X:1
T:William Tell Overture
T:William Tell Overture
C:Gioachino Rossini
%%score { ( 1 3 ) | ( 2 4 ) }
L:1/8
Q:1/4=160
M:4/4
K:E
V:1 treble nm="Piano" snm="Pno."
V:3 treble 
V:2 bass 
V:4 bass 
V:1
 .B3 B/B/ .B3 B/B/ | BGEG BGBe | BGEG BGBe | B3 B/B/ B3 B/B/ | B3 B/B/ B3 B | BB/B/ BB BB/B/ BB | %6
 BB/B/ BB BB/B/ BB | [DFB]8 | z4 z2 z [G,B,]/[G,B,]/ | %9
 [G,B,][G,B,]/[G,B,]/ [G,B,][G,B,]/[G,B,]/ [G,E][A,F] [B,G][G,B,]/[G,B,]/ | %10
 [G,B,][G,B,]/[G,B,]/ [G,E][B,G]/[B,G]/ [B,F][B,D] [A,B,][F,B,]/[F,B,]/ | %11
 [G,B,][G,B,]/[G,B,]/ [G,B,][G,B,]/[G,B,]/ [G,E][A,F] [B,G]E/G/ | %12
 [DFB-]2 B/A/G/F/ [G,E][B,G] [G,E][GB]/[GB]/ | %13
 [GB][GB]/[GB]/ [GB][GB]/[GB]/ [Ge][Af] [Bg][GB]/[GB]/ | %14
 [GB][GB]/[GB]/ [Ge][Bg]/[Bg]/ [Bf][Bd] [AB][FB]/[FB]/ | %15
 [GB][GB]/[GB]/ [GB][GB]/[GB]/ [Ge][Af] [Bg]e/g/ | [dfb-]2 b/a/g/f/ [Ge][Bg] [Ge][eg]/[eg]/ | %17
S [eg][eg]/[eg]/ [eg][eg]/[eg]/ [eg][egc'][eg][egc'] | [eg][egc'][eg][df] [ce][Gd] [Ec][eg]/[eg]/ | %19
 [eg][eg]/[eg]/ [eg][eg]/[eg]/ [eg][egc'][eg][egc'] | [eg][ec'][fb][e^a] [db]3 [eg]/[eg]/ | %21
 [eg][eg]/[eg]/ [eg][eg]/[eg]/ [eg][egc'][eg][egc'] | [eg][egc'][eg][df] [ce][Gd] [Ec][eg]/[eg]/ | %23
 [eg][eg]/[eg]/ [eg][eg]/[eg]/ [eg][egc'][eg][egc'] | [eg][ec'][fb][e^a] b/c'/b/a/ b/c'/b/a/ | %25
 b/c'/b/^a/ b/c'/b/a/ b/c'/b/a/ b/c'/b/a/ | b/c'/b/^a/ b/c'/b/a/ b/c'/b/a/ b/c'/b/a/ | %27
 b/c'/b/^a/ b/c'/b/a/ b/c'/b/a/ b/c'/b/a/ | %28
 b/c'/b/^a/ b/c'/b/a/ b/c'/b/a/ b[G,B,]/[G,B,]/!dacoda! | %29
 [G,B,][G,B,]/[G,B,]/ [G,B,][G,B,]/[G,B,]/ [G,E][A,F] [B,G][G,B,]/[G,B,]/ | %30
 [G,B,][G,B,]/[G,B,]/ [G,E][B,G]/[B,G]/ [B,F][B,D] [A,B,][F,B,]/[F,B,]/ | %31
 [G,B,][G,B,]/[G,B,]/ [G,B,][G,B,]/[G,B,]/ [G,E][A,F] [B,G]E/G/ | %32
 [DFB-]2 B/A/G/F/ [G,E][B,G] [G,E][GB]/[GB]/ | %33
 [GB][GB]/[GB]/ [GB][GB]/[GB]/ [Ge][Af] [Bg][GB]/[GB]/ | %34
 [GB][GB]/[GB]/ [Ge][Bg]/[Bg]/ [Bf][Bd] [AB][FB]/[FB]/ | %35
 [GB][GB]/[GB]/ [GB][GB]/[GB]/ [Ge][Af] [Bg]e/g/ | [dfb-]2 b/a/g/f/ [Ge]/E/F/G/ A/B/c/d/ | %37
 [GBe]>[GBe] [GBe][GBe] [Bdg]3 [Bdf] | [Ace][G^Bd][Ace][Ac] =B/^A/B/e/ B/A/B/e/ | %39
 A/G/A/B/ A/G/A/B/ G/=G/^G/A/ G/=G/^G/A/ | F/^E/F/G/ F/G/F/=E/ D/E/[B,F]/G/ A/B/c/d/ | %41
 [GBe]>[GBe] [GBe][GBe] [Bdg]3 [Bdf] | [Ace][G^Bd][Ace][Ac] =B/^A/B/e/ B/A/B/e/ | %43
 A/G/A/B/ A/G/A/B/ G/=G/^G/A/ G/=G/^G/A/ | F/^E/F/G/ F/E/F/G/ =E z c2 | %45
[M:2/4] z/ =c/d/^c/ B/A/G/F/ | %46
[M:4/4] [EG]/[EG]/[EG]/[EG]/ [EG]/[EG]/[EG]/[EG]/ [DF]/[DF]/[DF]/[DF]/ [DF]/[DF]/[DF]/[DF]/ | %47
 [CE]2 c2 z/ =c/d/^c/ B/A/G/F/ | %48
 [EG]/[EG]/[EG]/[EG]/ [EG]/[EG]/[EG]/[EG]/ [DF]/[DF]/[DF]/[DF]/ [DF]/[DF]/[DF]/[DF]/ |[M:2/4] E4 | %50
[M:4/4] [=cd]3 [^ce] [=cd]3 [^ce] | [Bd]2 [^Ad]2 [Bd]4 | E/F/E/D/ C/D/E/F/ G/F/E/D/ C/D/E/F/ | %53
 G/F/E/F/ ^^F/_E/_B,/E/ G/F/G/A/ B/c/d/e/ | A/G/F/G/ A/B/c/d/ G/F/E/F/ G/A/B/c/ | %55
 F/G/A/G/ F/E/D/E/ F/G/F/E/ F/B,/B/D/ | E/F/E/D/ C/D/E/F/ G/F/E/D/ C/D/E/F/ | %57
 G/F/E/F/ ^^F/_E/_B,/E/ G/F/G/A/ B/c/d/e/ | A/G/F/G/ A/B/c/d/ G/F/E/F/ G/A/B/c/ | %59
 F/G/A/G/ F/E/D/F/ E/F/G/A/ B/c/=d/^d/ | [GBe]>[GBe] [GBe][GBe] [Bdg]3 [Bdf] | %61
 [Ace][G^Bd][Ace][Ac] =B/^A/B/e/ B/A/B/e/ | A/G/A/B/ A/G/A/B/ G/=G/^G/A/ G/=G/^G/A/ | %63
 F/^E/F/G/ F/G/F/=E/ D/E/[B,F]/G/ A/B/c/d/ | [GBe]>[GBe] [GBe][GBe] [Bdg]3 [Bdf] | %65
 [Ace][G^Bd][Ace][Ac] =B/^A/B/e/ B/A/B/e/ | A/G/A/B/ A/G/A/B/ G/=G/^G/A/ G/=G/^G/A/ | %67
 F/^E/F/G/ F/E/F/G/ =E z2 [eg]/[eg]/!D.S.! | %68
O [G,B,][G,B,]/[G,B,]/ [G,B,][G,B,]/[G,B,]/ [G,E][A,F] [B,G][G,B,]/[G,B,]/ | %69
 [G,B,][G,B,]/[G,B,]/ [G,E][B,G]/[B,G]/ [B,F][B,D] [A,B,][F,B,]/[F,B,]/ | %70
 [G,B,][G,B,]/[G,B,]/ [G,B,][G,B,]/[G,B,]/ [G,E][A,F] [B,G]E/G/ | %71
 [DFB-]2 B/A/G/F/ [G,E][B,G] [G,E][GB]/[GB]/ | %72
 [GB][GB]/[GB]/ [GB][GB]/[GB]/ [Ge][Af] [Bg][GB]/[GB]/ | %73
 [GB][GB]/[GB]/ [Ge][Bg]/[Bg]/ [Bf][Bd] [AB][FB]/[FB]/ | %74
 [GB][GB]/[GB]/ [GB][GB]/[GB]/ [Ge][Af] [Bg]e/g/ |[M:2/4] [dfb-]2 b/a/g/f/ | %76
[M:4/4] [GBe]2 [EGB]3 c/d/ e/f/=g/^g/ | [cea][cea][cea][cea] [Bdfa][Bdfa][Bdfa][Bdfa] | %78
 [Beg]2 [EGB]3 c/d/ e/f/=g/^g/ | [cea][cea][cea][cea] [^Bda][Bda][Bda][Bda] | %80
 !//![ceg]2 !//![G^Bd]2 !//![Gce]2 !//![G=cf]2 | !//![ceg]2 !//![G^Bd]2 !//![Gce]2 !//![A=df]2 | %82
 [=ce=g]4 z [=Gce][EGc][Gce] | [Beg]4 z [GBe][EGB][GBe] | [c=fg]4 z [Gcf][=FGc][Gcf] | %85
 [=ce^a]4 z [ce=g][=Gce][ceg] | b_bag ^^f^f=fe | d^^c^c^B =Bcdf | [GBe]2 z B/B/ BB/B/ BB/B/ | %89
 ef gB/B/ BB/B/ BB/B/ | gab z efg z | GAB z z4 | [FABd]8 | %93
 [GBe][FAd][GBe][FAd] [GBe][FAd][GBe][FAd] | [GBe][FAd][GBe][FAd] [GBe][FAd][GBe][FAd] | %95
 z/ [GBe]3/2 z/ [EGB]3/2 z/ [B,EG]3/2 z/ [EGB]3/2 | %96
 z/ [GBe]3/2 z/ [EGB]3/2 z/ [B,EG]3/2 z/ [EGB]3/2 | z B,EB, GEBG | BGeB gebg | %99
 [gbe']3 [be']/[be']/ [be'][gb][eg][gb] | [gbe']2 z2 [egb]2 z2 | [E,G,B,E]8 |] %102
V:2
 z8 | z8 | z8 | z8 | z8 | %5
 [B,,,B,,][B,,,B,,]/[B,,,B,,]/ [B,,,B,,][B,,,B,,] [B,,,B,,][B,,,B,,]/[B,,,B,,]/ [B,,,B,,][B,,,B,,] | %6
 [B,,,B,,][B,,,B,,]/[B,,,B,,]/ [B,,,B,,][B,,,B,,] [B,,,B,,][B,,,B,,]/[B,,,B,,]/ [B,,,B,,][B,,,B,,] | %7
 [B,,,B,,]8 | z8 | E,,E,E,,E, E,,E,E,,E, | E,,E,E,,E, B,,,B,,B,,,B,, | E,,E,E,,E, E,,E,E,,E, | %12
 B,,,B,,B,,,B,, E,,E,E,,E, | E,,E,E,,E, E,,E,E,,E, | E,,E,E,,E, B,,,B,,B,,,B,, | %15
 E,,E,E,,E, E,,E,E,,E, | B,,,B,,B,,,B,, E,,E,E,,E, | [C,,C,]2 [C,,C,]2 [C,,C,]2 [C,,C,]2 | %18
 [C,,C,]2 [C,,C,][G,,,G,,] [C,,C,][G,,,G,,] [C,,C,]2 | [C,,C,]2 [C,,C,]2 [C,,C,]2 [C,,C,]2 | %20
 [C,,C,]2 [F,,,F,,][F,,,F,,] [B,,,B,,][B,,,B,,] [G,,,G,,]2 | [C,,C,]2 [C,,C,]2 [C,,C,]2 [C,,C,]2 | %22
 [C,,C,]2 [C,,C,][G,,,G,,] [C,,C,][G,,,G,,] [C,,C,]2 | [C,,C,]2 [C,,C,]2 [C,,C,]2 [C,,C,]2 | %24
 [C,,C,]2 [F,,,F,,][F,,,F,,] [B,,,B,,] z2[K:treble] [DF]/[DF]/ | %25
 [DF][DF]/[DF]/ [DF][EG] [FA] [DF]2 [EG]/[FA]/ | [EG] [B,E]2 [DF]/[EG]/ [DF]3 [df]/[df]/ | %27
 [df][df]/[df]/ [df][eg] [fa] [df]2 [eg]/[fa]/ | [eg] [Be]2 [df]/[eg]/ [df]3[K:bass] z | %29
 E,,E,E,,E, E,,E,E,,E, | E,,E,E,,E, B,,,B,,B,,,B,, | E,,E,E,,E, E,,E,E,,E, | %32
 B,,,B,,B,,,B,, E,,E,E,,E, | E,,E,E,,E, E,,E,E,,E, | E,,E,E,,E, B,,,B,,B,,,B,, | %35
 E,,E,E,,E, E,,E,E,,E, | B,,,B,,B,,,B,, E,, z z2 | E,,E,E,,E, G,,G,G,,G, | %38
 A,,A,A,,A, [E,G,B,][E,G,B,][E,G,B,][E,G,B,] | %39
 [F,A,C][F,A,C][F,A,D][F,A,D] [E,G,B,][E,G,B,][E,G,C][E,G,C] | %40
 [F,_B,E][F,B,E][F,B,E][F,B,E] [F,A,D] [B,,,B,,]3 | E,,E,E,,E, G,,G,G,,G, | %42
 A,,A,A,,A, [E,G,B,][E,G,B,][E,G,B,][E,G,B,] | %43
 [F,A,C][F,A,C][F,A,D][F,A,D] [E,G,B,][E,G,B,][E,G,C][E,G,C] | %44
 [F,_B,E][F,B,E][F,A,D][F,A,D] [G,=B,E] z z2 |[M:2/4] z4 |[M:4/4] z8 | z8 | z8 | %49
[M:2/4] C/C/C/C/ C/C/C/C/ |[M:4/4] G,/G,/G,/G,/ G,/G,/G,/G,/ G,/G,/G,/G,/ G,/G,/G,/G,/ | %51
 G,/G,/G,/G,/ D,/D,/D,/D,/ G,/G,/G,/G,/ G,/G,/G,/G,/ | E/E/E/E/ E/E/E/E/ E/E/E/E/ E/E/E/E/ | %53
 E/E/E/E/ B,/B,/B,/B,/ E/E/E/E/ E/E/E/E/ | B,/B,/B,/B,/ B,/B,/B,/B,/ C/C/C/C/ C/C/C/C/ | %55
 ^A,/A,/A,/A,/ A,/A,/A,/A,/ B,/B,/B,/B,/ B,/B,/B,/B,/ | E/E/E/E/ E/E/E/E/ E/E/E/E/ E/E/E/E/ | %57
 E/E/E/E/ B,/B,/B,/B,/ E/E/E/E/ E/E/E/E/ | B,/B,/B,/B,/ B,/B,/B,/B,/ C/C/C/C/ C/C/C/C/ | %59
 ^A,/A,/A,/A,/ B,/B,/B,/B,/[K:bass] [E,,E,]4 | E,,E,E,,E, G,,G,G,,G, | %61
 A,,A,A,,A, [E,G,B,][E,G,B,][E,G,B,][E,G,B,] | %62
 [F,A,C][F,A,C][F,A,D][F,A,D] [E,G,B,][E,G,B,][E,G,C][E,G,C] | %63
 [F,_B,E][F,B,E][F,B,E][F,B,E] [F,A,D] [B,,,B,,]3 | E,,E,E,,E, G,,G,G,,G, | %65
 A,,A,A,,A, [E,G,B,][E,G,B,][E,G,B,][E,G,B,] | %66
 [F,A,C][F,A,C][F,A,D][F,A,D] [E,G,B,][E,G,B,][E,G,C][E,G,C] | %67
 [F,_B,E][F,B,E][F,A,D][F,A,D] [G,=B,E]B,,E,,G,, | E,,E,E,,E, E,,E,E,,E, | %69
 E,,E,E,,E, B,,,B,,B,,,B,, | E,,E,E,,E, E,,E,E,,E, | B,,,B,,B,,,B,, E,,E,E,,E, | %72
 [E,,E,]2 [E,,E,]2 [E,,E,][E,,E,] [E,,E,]2 | [E,,E,]2 [E,,E,]2 [B,,,B,,][B,,,B,,] [B,,,B,,]2 | %74
 [E,,E,]2 [E,,E,]2 [E,,E,][E,,E,] [E,,E,]2 |[M:2/4] [A,,,A,,][A,,,A,,] [B,,,B,,][B,,,B,,] | %76
[M:4/4] E,,E,E,,E, E,,E,E,,E, | A,,A,,A,,A,, B,,B,,B,,B,, | E,,E,E,,E, E,,E,E,,E, | %79
 A,,A,,A,,A,, G,,G,,G,,G,, | [C,,C,]2 [A,,,G,,]2 [C,,C,]2 [A,,,G,,]2 | %81
 [C,,C,]2 [A,,,G,,]2 [C,,C,]2 [=D,,=D,]2 | [=C,,=C,]4 [C,,C,]4 | [E,,E,]4 [E,,E,]4 | %84
 [C,,C,]4 [C,,C,]4 | [=C,,=C,]4 [C,,C,]4 | [E,,E,]2 [E,,E,]2 [E,,E,]2 [E,,E,]2 | %87
 [B,,,B,,]2 [B,,,B,,]2 [B,,,B,,]2 [B,,,B,,]2 | [E,,E,]2 z2 z4 | %89
 z z z[K:treble] B,/B,/ B,B,/B,/ B,B,/B,/ | GAB z EFG z | G,A,B, z z4 | %92
[K:bass] B,,/C,/B,,/^A,,/ B,,/C,/D,/E,/ F,/E,/D,/C,/ B,,/F,,/!~(!B,, | %93
 !~)![E,,E,][B,,,B,,][E,,E,][B,,,B,,] [E,,E,][B,,,B,,][E,,E,][B,,,B,,] | %94
 [E,,E,][B,,,B,,][E,,E,][B,,,B,,] [E,,E,][B,,,B,,][E,,E,][B,,,B,,] | %95
 [E,,E,]2 [B,,,B,,]2 [E,,E,]2 [B,,,B,,]2 | [E,,E,]2 [B,,,B,,]2 [E,,E,]2 [B,,,B,,]2 | z8 | %98
 z B,,E,B,, G,E,B,G, | [E,,E,]2 z2 [E,,E,]2 [E,,E,]2 | [E,,E,]2 z2 [B,,,B,,]2 z2 | [E,,,E,,]8 |] %102
V:3
 x8 | x8 | [EG]3 [EG]/[EG]/ [EG]3 [EG]/[EG]/ | [EG][B,F][G,E][B,F] [EG][GB][FA][EG] | %4
 [FA][EG][B,F][FA] [EG][B,F][G,E][EG] | x8 | E4 C4 | x8 | x8 | x8 | x8 | x8 | x8 | x8 | x8 | x8 | %16
 x8 | x8 | x8 | x8 | x8 | x8 | x8 | x8 | x8 | x8 | x8 | x8 | x8 | x8 | x8 | x8 | x8 | x8 | x8 | %35
 x8 | x8 | x8 | x8 | x8 | x8 | x8 | x8 | x8 | x8 |[M:2/4] x4 |[M:4/4] C4 ^B,4 | x8 | C4 ^B,4 | %49
[M:2/4] x4 |[M:4/4] x8 | x8 | x8 | x8 | x8 | x8 | x8 | x8 | x8 | x8 | x8 | x8 | x8 | x8 | x8 | x8 | %66
 x8 | x8 | x8 | x8 | x8 | x8 | x8 | x8 | x8 |[M:2/4] x4 |[M:4/4] x8 | x8 | x8 | x8 | x8 | x8 | x8 | %83
 x8 | x8 | x8 | x8 | x8 | x8 | x8 | x8 | x8 | x8 | x8 | x8 | x8 | x8 | x8 | x8 | x8 | x8 | x8 |] %102
V:4
 x8 | x8 | x8 | x8 | x8 | x8 | x8 | x8 | x8 | x8 | x8 | x8 | x8 | x8 | x8 | x8 | x8 | x8 | x8 | %19
 x8 | x8 | x8 | x8 | x8 | x7[K:treble] x | x8 | x8 | x8 | x7[K:bass] x | x8 | x8 | x8 | x8 | x8 | %34
 x8 | x8 | x8 | x8 | x8 | x8 | x8 | x8 | x8 | x8 | x8 |[M:2/4] x4 |[M:4/4] x8 | x8 | x8 | %49
[M:2/4] x4 |[M:4/4] x8 | x8 | [G,E]3 [B,F] [EG]3 [FA] | [GB]2 [^^F^A]2 [GB]4 | [FA]4 [EG]4 | %55
 [CF]4 [DF]4 | [G,E]3 [B,F] [EG]3 [FA] | [GB]2 [^^F^A]2 [GB]4 | [FA]4 [EG]4 | %59
 [CF]2 [DF]2[K:bass] z4 | x8 | x8 | x8 | x8 | x8 | x8 | x8 | x8 | x8 | x8 | x8 | x8 | x8 | x8 | %74
 x8 |[M:2/4] x4 |[M:4/4] x8 | x8 | x8 | x8 | x8 | x8 | x8 | x8 | x8 | x8 | x8 | x8 | x8 | %89
 x3[K:treble] x5 | x8 | x8 |[K:bass] x8 | x8 | x8 | x8 | x8 | x8 | x8 | x8 | x8 | x8 |] %102

